X: 1
T: Tug Argan Gap
O: from Matt Petrie, arr. T. Traub 2-24-2004
R: Jig
M: 6/8
K: D
L: 1/8
|: a|"D"f<af d2 f|f>ga a>ef|"A7"g3 c2 e|A>ce e>fg|"D"f<af d2 f|"D"f>ga "Bm"a>ef|"Em"g2 A "A7"f>ge|"D"d3 d2 :|
|: f/<g/|"D"a3 f3|A>da f>ed|"Em"g3 e3|"A7"A>ce e>fg|"D"a3 f3 |"D"A>da "Bm"f>ed|"Em"g2 A "A7"f>ge|"D"d3 d2 :|
|: a|"D"A>df f3|A>da f>ed|"A7"g>ee e2 g|e<ge c2 a|"D"A>df f3|A>da f>ed|"A7"g2 A f>ge|"D"d3 d2 :|
|: f/<g/|"D"a>ff f2 a|f<af d>ef|"Em"g>ee e2 g|"A7"e<ge c>BA|"D"a>ff f2 a|"D"f<af "Bm"d>ef|"Em"g2 A "A7"f>ge|"D"d3 d2 :|
